src/beethovenx/assets/images/medium.svg

<svg width="24" height="24" viewBox="0 0 24 24" fill="none" xmlns="http://www.w3.org/2000/svg">
<g clip-path="url(#clip0_782_109)">
<path d="M13.54 11.9997C13.5453 13.8014 12.8354 15.5316 11.566 16.8104C10.2967 18.0891 8.57177 18.8117 6.77003 18.8197C4.96829 18.8117 3.24335 18.0891 1.97402 16.8104C0.704678 15.5316 -0.00528713 13.8014 2.96483e-05 11.9997C-0.00528713 10.1979 0.704678 8.46773 1.97402 7.18902C3.24335 5.91031 4.96829 5.18763 6.77003 5.17969C8.57177 5.18763 10.2967 5.91031 11.566 7.18902C12.8354 8.46773 13.5453 10.1979 13.54 11.9997ZM20.96 11.9997C20.96 15.5397 19.45 18.4197 17.58 18.4197C15.71 18.4197 14.19 15.5397 14.19 11.9997C14.19 8.45969 15.71 5.57969 17.58 5.57969C19.45 5.57969 20.96 8.45969 20.96 11.9997V11.9997ZM24 11.9997C24 15.1697 23.47 17.7497 22.81 17.7497C22.15 17.7497 21.62 15.1697 21.62 11.9997C21.62 8.82969 22.15 6.24969 22.81 6.24969C23.47 6.24969 24 8.82969 24 11.9997Z" fill="white"/>
</g>
<defs>
<clipPath id="clip0_782_109">
<rect width="24" height="24" fill="white"/>
</clipPath>
</defs>
</svg>

<svg width="24" height="24" fill="none" xmlns="http://www.w3.org/2000/svg"><g clip-path="url(#a)"><path d="M13.54 12a6.8 6.8 0 0 1-6.77 6.82A6.8 6.8 0 0 1 0 12a6.8 6.8 0 0 1 6.77-6.82A6.8 6.8 0 0 1 13.54 12Zm7.42 0c0 3.54-1.51 6.42-3.38 6.42-1.87 0-3.39-2.88-3.39-6.42s1.52-6.42 3.39-6.42 3.38 2.88 3.38 6.42ZM24 12c0 3.17-.53 5.75-1.19 5.75-.66 0-1.19-2.58-1.19-5.75s.53-5.75 1.19-5.75C23.47 6.25 24 8.83 24 12Z" fill="#fff"/></g><defs><clipPath id="a"><path fill="#fff" d="M0 0h24v24H0z"/></clipPath></defs></svg>
